symbols/web/important_devices/materialsymbolsrounded/important_devices_wght300gradN25fill1_20px.svg

<svg xmlns="http://www.w3.org/2000/svg" height="20" width="20"><path d="M14 16.938q-.292 0-.5-.219-.208-.219-.208-.531V9.875q0-.292.208-.51.208-.219.5-.219h3.083q.292 0 .5.219.209.218.209.51v6.313q0 .291-.209.52-.208.23-.521.23Zm.042-1.626h2.979v-4.541h-2.979Zm-6.688 1.626q-.229 0-.416-.198-.188-.198-.188-.428 0-.25.188-.437.187-.187.437-.187h1.146v-2.063H3.729q-.646 0-1.083-.437-.438-.438-.438-1.063V4.562q0-.624.438-1.062.437-.438 1.083-.438h10.875q.625 0 1.063.438.437.438.437 1.062v3.75H14q-.646 0-1.094.459-.448.458-.448 1.104v3.75H9.771v2.063h1.125q.25 0 .437.187.188.187.188.437 0 .23-.188.428-.187.198-.416.198Zm1.104-6.605.667-.521.667.521q.27.188.5.021.229-.166.146-.458l-.271-.854.791-.667q.23-.187.146-.448-.083-.26-.375-.26h-.937l-.271-.855q-.063-.145-.167-.208-.104-.062-.229-.062t-.24.062q-.114.063-.156.208l-.271.855h-.916q-.313 0-.396.26-.084.261.146.448l.812.667-.271.833q-.083.292.146.469.229.177.479-.011Z"/></svg>

<svg xmlns="http://www.w3.org/2000/svg" height="20" width="20"><path d="M14 16.938Q13.708 16.938 13.5 16.719Q13.292 16.5 13.292 16.188V9.875Q13.292 9.583 13.5 9.365Q13.708 9.146 14 9.146H17.083Q17.375 9.146 17.583 9.365Q17.792 9.583 17.792 9.875V16.188Q17.792 16.479 17.583 16.708Q17.375 16.938 17.062 16.938ZM14.042 15.312H17.021V10.771H14.042ZM7.354 16.938Q7.125 16.938 6.938 16.74Q6.75 16.542 6.75 16.312Q6.75 16.062 6.938 15.875Q7.125 15.688 7.375 15.688H8.521V13.625H3.729Q3.083 13.625 2.646 13.188Q2.208 12.75 2.208 12.125V4.562Q2.208 3.938 2.646 3.5Q3.083 3.062 3.729 3.062H14.604Q15.229 3.062 15.667 3.5Q16.104 3.938 16.104 4.562V8.312H14Q13.354 8.312 12.906 8.771Q12.458 9.229 12.458 9.875V13.625H9.771V15.688H10.896Q11.146 15.688 11.333 15.875Q11.521 16.062 11.521 16.312Q11.521 16.542 11.333 16.74Q11.146 16.938 10.917 16.938ZM8.458 10.333 9.125 9.812 9.792 10.333Q10.062 10.521 10.292 10.354Q10.521 10.188 10.438 9.896L10.167 9.042L10.958 8.375Q11.188 8.188 11.104 7.927Q11.021 7.667 10.729 7.667H9.792L9.521 6.812Q9.458 6.667 9.354 6.604Q9.25 6.542 9.125 6.542Q9 6.542 8.885 6.604Q8.771 6.667 8.729 6.812L8.458 7.667H7.542Q7.229 7.667 7.146 7.927Q7.062 8.188 7.292 8.375L8.104 9.042L7.833 9.875Q7.75 10.167 7.979 10.344Q8.208 10.521 8.458 10.333Z"/></svg>
